images/services/likes-icon.svg

<svg width="46" height="40" viewBox="0 0 46 40" fill="none" xmlns="http://www.w3.org/2000/svg">
<path d="M42.6671 3.46462C38.2232 -1.15487 31.0181 -1.15487 26.574 3.46462L24.0638 6.07405C23.4653 6.6962 22.4946 6.6962 21.8961 6.07405L19.426 3.50632C14.9821 -1.11318 7.77704 -1.11318 3.33294 3.50632C-1.11098 8.12581 -1.11098 15.6155 3.33294 20.2352L21.8976 39.5334C22.4961 40.1555 23.4668 40.1555 24.0653 39.5334L42.6669 20.1935C47.111 15.5738 47.111 8.08431 42.6671 3.46462Z" fill="#407BFF"/>
</svg>

<?xml version="1.0" encoding="UTF-8"?>
<svg width="46" height="40" fill="none" version="1.1" viewBox="0 0 46 40" xmlns="http://www.w3.org/2000/svg">
 <path d="m42.667 3.4646c-4.4439-4.6195-11.649-4.6195-16.093 0l-2.5102 2.6094c-0.5985 0.62215-1.5692 0.62215-2.1677 0l-2.4701-2.5677c-4.4439-4.6195-11.649-4.6195-16.093 0-4.4439 4.6195-4.4439 12.109 0 16.729l18.565 19.298c0.5985 0.6221 1.5692 0.6221 2.1677 0l18.602-19.34c4.4441-4.6197 4.4441-12.109 2e-4 -16.729z" fill="#FF725E"/>
</svg>
